!!!!SEGMENT: Sil2007-Puer_natus_est.krn
!!!id: Sil2007
!!!AGN: Motet
!!!SCT: Lowinsky (1968)
!!!voices: 5
!!!COM: Andreas de Silva
!!!OTL: Puer natus est
**kern	**kern	**kern	**kern	**kern
*part5	*part4	*part3	*part2	*part1
*staff5	*staff4	*staff3	*staff2	*staff1
*I"Bassus	*I"Tenor II	*I"Tenor I	*I"Altus	*I"Superius
*I'B	*I'T. II	*I'T. I	*I'A	*I'S
*clefF4	*clefGv2	*clefGv2	*clefGv2	*clefG2
*k[]	*k[]	*k[]	*k[]	*k[]
*C:	*C:	*C:	*C:	*C:
*M2/1	*M2/1	*M2/1	*M2/1	*M2/1
*met(C|)	*met(C|)	*met(C2)	*met(C|)	*met(C|)
!!section: Prima pars: Puer natus est
!!!OMD: Prima pars: Puer natus est
=1	=1	=1	=1	=1
0r	0r	0r	0r	0g
=2	=2	=2	=2	=2
0r	0r	0r	0r	0dd
=3	=3	=3	=3	=3
0r	0r	0r	0G	1dd
.	.	.	.	2b
.	.	.	.	[2dd
=4	=4	=4	=4	=4
0r	0r	0r	0d	2dd]
.	.	.	.	4cc
.	.	.	.	4b
.	.	.	.	2.a
.	.	.	.	4g
=5	=5	=5	=5	=5
0r	0G	0r	1.d	0b
.	.	.	2e	.
=6	=6	=6	=6	=6
0r	0d	0r	1f	1a
.	.	.	2.B-X	[1dd
.	.	.	4c	.
=7	=7	=7	=7	=7
0r	1d	0r	2d	2dd]
.	.	.	2e	4cc
.	.	.	.	4b
.	[1d	.	2f	2.a
.	.	.	[2g	.
.	.	.	.	4g
=8	=8	=8	=8	=8
1r	1d]	0r	4g]	1a
.	.	.	4f#i	.
.	.	.	4f#i	.
.	.	.	4e	.
[1C	[1e	.	[1g	2r
.	.	.	.	2g
=9	=9	=9	=9	=9
1C]	1e]	0r	0g_	1cc
[1G	2.d	.	.	1b
.	4c	.	.	.
=10	=10	=10	=10	=10
1G]	2d	0r	1g]	2.g
.	1e	.	.	.
.	.	.	.	4a
1G	.	.	1r	4b
.	.	.	.	4cc
.	2d	.	.	[2dd
=11	=11	=11	=11	=11
0G	2.e	0r	0g	4dd]
.	.	.	.	4cc
.	.	.	.	2.cc
.	8dL	.	.	.
.	8cJ	.	.	.
.	1d	.	.	.
.	.	.	.	4b
.	.	.	.	4b
.	.	.	.	8aL
.	.	.	.	8bJ
=12	=12	=12	=12	=12
1.A	0c	0r	2.e	1.cc
.	.	.	4d	.
.	.	.	2e	.
2F	.	.	2f	2a
=13	=13	=13	=13	=13
1G	2r	0r	1d	2b
.	1d	.	.	2g
1F	.	.	1r	1a
.	2c	.	.	.
=14	=14	=14	=14	=14
2r	2e	0r	0r	1g
1G	2d	.	.	.
.	2r	.	.	1r
2F	[2d	.	.	.
=15	=15	=15	=15	=15
1A	2d]	0r	0r	0r
.	2c	.	.	.
[1G	1e	.	.	.
=16	=16	=16	=16	=16
2G]	2.d	0r	0r	0r
1B	.	.	.	.
.	4c	.	.	.
.	4B	.	.	.
.	4G	.	.	.
[2A	[2c	.	.	.
=17	=17	=17	=17	=17
4A]	4c]	0r	0r	1g
4G	4B	.	.	.
2.G	4A	.	.	.
.	4G	.	.	.
.	1A	.	.	1dd
8F#iL	.	.	.	.
8EJ	.	.	.	.
2F#i	.	.	.	.
=18	=18	=18	=18	=18
1G	1G	0r	1r	1dd
1r	1r	.	1c	1ee
=19	=19	=19	=19	=19
0r	0r	0r	1g	1.dd
.	.	.	1g	.
.	.	.	.	2b
=20	=20	=20	=20	=20
0r	1r	0r	1a	1cc
.	1G	.	[1g	1b
=21	=21	=21	=21	=21
0r	1d	0r	2g]	1a
.	.	.	4f#i	.
.	.	.	4e	.
.	1d	.	1f#i	1r
=22	=22	=22	=22	=22
1C	1e	0r	0g	1cc
1G	[1d	.	.	1dd
=23	=23	=23	=23	=23
1G	2d]	0r	2r	1b
.	2B	.	1g	.
1A	1c	.	.	2r
.	.	.	2f#i	2cc
=24	=24	=24	=24	=24
1G	1B	0r	1g	2dd
.	.	.	.	2ee
[1F	1A	.	1c	1ff
=25	=25	=25	=25	=25
2F]	1r	0r	1d	2r
2D	.	.	.	2f
1E	1c	.	1G	2g
.	.	.	.	[2cc
=26	=26	=26	=26	=26
1D	1d	0r	1f	4cc]
.	.	.	.	4b
.	.	.	.	4b
.	.	.	.	8aL
.	.	.	.	8bJ
1r	1c	.	2.e	1cc
.	.	.	4d	.
=27	=27	=27	=27	=27
1F	2c	0r	2c	1a
.	1f	.	2A	.
1G	.	.	1B	1g
.	2e	.	.	.
=28	=28	=28	=28	=28
1F	2d	0r	1A	1r
.	2c	.	.	.
1F	1f	.	[1c	1a
=29	=29	=29	=29	=29
2.C	1e	0r	1c]	1.g
4D	.	.	.	.
4E	1c	.	1r	.
4C	.	.	.	.
[2F	.	.	.	[2a
=30	=30	=30	=30	=30
2F]	1d	0r	2.f	2a]
2D	.	.	.	2.b
.	.	.	4d	.
2G	2B	.	2e	.
.	.	.	.	4a
2F	2c	.	2f	[2a
=31	=31	=31	=31	=31
!	!	!LO:TX:b:t=2	!	!
1G	2B	0d	2r	2a]
.	4A	.	2.d	2.g
.	4G	.	.	.
1D	1A	.	.	.
.	.	.	4c	4f#i
.	.	.	2A	4f#i
.	.	.	.	4e
=32	=32	=32	=32	=32
1r	1G	0d	2B	1g
.	.	.	2G	.
1G	1d	.	1g	1b
=33	=33	=33	=33	=33
1C	1c	0e	1g	1cc
1C	1c	.	1g	1cc
=34	=34	=34	=34	=34
0G	0B	0d	0g	0dd
=35	=35	=35	=35	=35
1r	1r	0B	1r	1r
1G	1g	.	1d	1dd
=36	=36	=36	=36	=36
1C	1g	0c	1e	1cc
1C	1g	.	1e	1cc
=37	=37	=37	=37	=37
1G	1g	0d	2d	1b
.	.	.	2g	.
2r	2r	.	2a	1dd
2G	[2g	.	2b	.
=38	=38	=38	=38	=38
1C	2g]	0c	2.cc	1ee
.	2f	.	.	.
.	.	.	4b	.
1C	1e	.	2a	1ee
.	.	.	2g	.
=39	=39	=39	=39	=39
[0D	2.d	[0A	2f	2.ff
.	.	.	4d	.
.	4c	.	4e	4ee
.	4d	.	4f	4dd
.	4e	.	4g	4cc
.	[2f	.	[2a	2dd
=40	=40	=40	=40	=40
0D]	4f]	0A]	4a]	2a
.	4e	.	4g	.
.	4d	.	2.g	2.dd
.	4c	.	.	.
.	1d	.	.	.
.	.	.	4f#i	4cc
.	.	.	4f#i	4b
.	.	.	8eL	4a
.	.	.	8f#iJ	.
=41	=41	=41	=41	=41
1r	1r	[0G	1g	1b
1G	1B	.	1d	1dd
=42	=42	=42	=42	=42
1C	1c	0G]	1e	1cc
1C	1c	.	1e	1cc
=43	=43	=43	=43	=43
0G	[0B	[0G	[0d	0dd
=44	=44	=44	=44	=44
0r	0B]	0G]	0d]	1r
.	.	.	.	1g
=45	=45	=45	=45	=45
0r	0r	0r	1r	1g
.	.	.	1G	1dd
=46	=46	=46	=46	=46
0r	1r	0r	1G	2.dd
.	.	.	.	4cc
.	2r	.	1d	4b
.	.	.	.	4a
.	[2G	.	.	[2b
=47	=47	=47	=47	=47
0r	2G]	0r	1d	4b]
.	.	.	.	4g
.	2F	.	.	2a
.	2G	.	1d	2b
.	2F	.	.	2a
=48	=48	=48	=48	=48
0r	2G	0r	1d	2b
.	2F	.	.	1a
.	1D	.	1d	.
.	.	.	.	4g
.	.	.	.	4f
=49	=49	=49	=49	=49
1r	1A	0r	1c	2e
.	.	.	.	1a
1D	1A	.	1d	.
.	.	.	.	[2d
=50	=50	=50	=50	=50
1D	0r	0r	1.f	2d]
.	.	.	.	1dd
1A	.	.	.	.
.	.	.	4e	4cc
.	.	.	4d	4b
=51	=51	=51	=51	=51
1A	0r	0r	2e	2.cc
.	.	.	2f	.
.	.	.	.	4dd
1A	.	.	2e	2ee
.	.	.	[2a	[2cc
=52	=52	=52	=52	=52
1A	0r	0r	4a]	4cc]
.	.	.	4g	4b
.	.	.	4f	4a
.	.	.	4e	4g
1A	.	.	2.f#i	1a
.	.	.	4e	.
=53	=53	=53	=53	=53
4G	1r	0r	0g	0b
4F	.	.	.	.
4G	.	.	.	.
4A	.	.	.	.
4B	1G	.	.	.
4c	.	.	.	.
[2d	.	.	.	.
=54	=54	=54	=54	=54
4d]	1G	0r	1G	2r
4c	.	.	.	.
4B	.	.	.	1b
4A	.	.	.	.
2G	1d	.	1r	.
2F	.	.	.	2a
=55	=55	=55	=55	=55
2G	1d	0r	2r	2b
1D	.	.	1A	2.a
.	1d	.	.	.
.	.	.	.	4g
[2G	.	.	2G	2b
=56	=56	=56	=56	=56
4G]	1d	0r	2B	2g
8F#iL	.	.	.	.
8EJ	.	.	.	.
2F#i	.	.	2A	2a
2G	1d	.	2r	2b
2D	.	.	[2f	[2a
=57	=57	=57	=57	=57
1A	1c	0r	2f]	4a]
.	.	.	.	4g
.	.	.	2e	2a
1r	1d	.	2r	2f
.	.	.	[2f	2d
=58	=58	=58	=58	=58
1D	1.f	0r	4f]	[0a
.	.	.	4e	.
.	.	.	1d	.
[1A	.	.	.	.
.	4e	.	4c	.
.	4d	.	4B	.
=59	=59	=59	=59	=59
1A]	1e	0r	1c	0a]
[1D	[1f	.	1d	.
=60	=60	=60	=60	=60
1D]	1f]	0r	1A	2r
.	.	.	.	1dd
1r	2r	.	1r	.
.	2c	.	.	2ee
=61	=61	=61	=61	=61
1r	2d	0r	1r	2ff
.	2e	.	.	2.ee
2r	1f	.	2r	.
.	.	.	.	4dd
2F	.	.	2a	[2dd
=62	=62	=62	=62	=62
2G	1e	0r	2b	4dd]
.	.	.	.	4cc
2A	.	.	1a	4cc
.	.	.	.	4b
1B-X	1d	.	.	2dd
.	.	.	[2g	2g
=63	=63	=63	=63	=63
1A	2r	0r	2g]	2.cc
.	2c	.	2f#i	.
.	.	.	.	8bL
.	.	.	.	8aJ
1G	2d	.	1g	2b
.	2e	.	.	[2ee
=64	=64	=64	=64	=64
2r	1f	0r	2r	2ee]
2F	.	.	2a	2dd
2G	1e	.	2b	2dd
2A	.	.	[2a	2cc
=65	=65	=65	=65	=65
1B-i	1d	0r	4a]	1dd
.	.	.	4g	.
.	.	.	1g	.
1A	1r	.	.	1r
.	.	.	2f#i	.
=66	=66	=66	=66	=66
0G	1r	0r	0g	1dd
.	1d	.	.	2dd
.	.	.	.	[2b
=67	=67	=67	=67	=67
1G	2d	0r	1r	2b]
.	1B	.	.	2g
2G	.	.	1g	1g
[2E	2G	.	.	.
=68	=68	=68	=68	=68
2E]	1G	0r	2g	0cc
2C	.	.	1e	.
1C	[1c	.	.	.
.	.	.	2c	.
=69	=69	=69	=69	=69
0F	1c]	0r	1c	1a
.	1A	.	[1f	1dd
=70	=70	=70	=70	=70
1D	1d	0r	2f]	2dd
.	.	.	8fL	1b
.	.	.	8e	.
.	.	.	8d	.
.	.	.	8cJ	.
1d	2d	.	1B	.
.	[2B	.	.	2g
=71	=71	=71	=71	=71
2d	2B]	0r	0r	2.g
1B	2G	.	.	.
.	.	.	.	4f
.	2G	.	.	4g
.	.	.	.	4e
[2e	[2c	.	.	[2a
=72	=72	=72	=72	=72
4e]	4c]	0r	0r	2a]
4d	4B	.	.	.
4c	4A	.	.	1g
4B	4G	.	.	.
1c	1A	.	.	.
.	.	.	.	2f#i
=73	=73	=73	=73	=73
1C	0e	[0c	2r	1g
.	.	.	1c	.
2r	.	.	.	1a
[2c	.	.	2A	.
=74	=74	=74	=74	=74
2c]	2r	0c]	1F	0r
2A	1c	.	.	.
1F	.	.	1f	.
.	2A	.	.	.
=75	=75	=75	=75	=75
2r	2F	0c	2r	1r
2F	2A	.	2f	.
2C	2G	.	2f	2r
2C	2G	.	2e	[2cc
=76	=76	=76	=76	=76
1F	1.F	0c	0f	2cc]
.	.	.	.	2a
2r	.	.	.	2f
2F	[2f	.	.	2a
=77	=77	=77	=77	=77
2C	4f]	1c	2r	2g
.	4e	.	.	.
2C	4e	.	2g	2g
.	4d	.	.	.
[1F	1f	1c	1a	[1f
=78	=78	=78	=78	=78
1F]	2r	0A	1.a	1f]
.	1.c	.	.	.
2r	.	.	.	2r
2F	.	.	2f	2a
=79	=79	=79	=79	=79
2F	2A	0c	1f	2a
2F	2F	.	.	2a
1C	2G	.	1e	4g
.	.	.	.	4f
.	2c	.	.	4g
.	.	.	.	4a
=80	=80	=80	=80	=80
0G	2B	0d	2d	4b
.	.	.	.	4g
.	2G	.	2.g	1cc
.	1B	.	.	.
.	.	.	4f	.
.	.	.	4e	2b
.	.	.	4d	.
=81	=81	=81	=81	=81
1C	1G	[0c	2.e	1cc
.	.	.	4d	.
2F	2r	.	2f	2a
2F	2A	.	2f	2a
=82	=82	=82	=82	=82
2.F	2.A	0c]	2.f	2.a
4F	4A	.	4f	4a
2F	2c	.	2f	2a
2A	2c	.	2f	2a
=83	=83	=83	=83	=83
2G	2d	0r	2g	2b
2E	2e	.	2g	2b
2F	2c	.	2f	2a
2G	2B	.	2d	[2g
=84	=84	=84	=84	=84
1C	2.c	0r	2e	2g]
.	.	.	1c	2a
.	4B	.	.	.
1D	2A	.	.	2a
.	2G	.	4B	[2b
.	.	.	4A	.
=85	=85	=85	=85	=85
1D	1F	0r	2.B	4b]
.	.	.	.	4a
.	.	.	.	4g
.	.	.	4A	4f
1C	1G	.	[1c	2.e
.	.	.	.	4d
=86	=86	=86	=86	=86
0F	1r	0r	2c]	1f
.	.	.	2B	.
.	[1c	.	1A	1r
=87	=87	=87	=87	=87
1E	1c]	0r	1e	1cc
[1D	1B	.	1r	1dd
=88	=88	=88	=88	=88
1D]	1.A	0r	1a	1ff
1F	.	.	1a	1ff
.	[2c	.	.	.
=89	=89	=89	=89	=89
2C	2c]	0r	1g	1ee
2G	2B	.	.	.
1A	1c	.	2c	1ff
.	.	.	[2cc	.
=90	=90	=90	=90	=90
0G	0d	0r	2cc]	0gg
.	.	.	4b	.
.	.	.	4a	.
.	.	.	2.b	.
.	.	.	4a	.
=91	=91	=91	=91	=91
0C	1.c	0r	1cc	1ee
.	.	.	[1c	1gg
.	2B	.	.	.
=92	=92	=92	=92	=92
0D	2A	0r	2c]	1ff
.	2G	.	4B	.
.	.	.	4A	.
.	1F	.	2.B	1dd
.	.	.	4A	.
=93	=93	=93	=93	=93
[0C	1G	0r	0c	1ee
.	2r	.	.	[1ee
.	[2c	.	.	.
=94	=94	=94	=94	=94
0C_	2c]	0r	2r	0ee_
.	2c	.	1c	.
.	2A	.	.	.
.	2G	.	2c	.
=95	=95	=95	=95	=95
0C]	2.c	0r	2A	1ee]
.	.	.	2G	.
.	4B	.	.	.
.	2A	.	2.c	2r
.	2G	.	.	[2cc
.	.	.	4B	.
=96	=96	=96	=96	=96
2r	1F	[0A	2A	2cc]
1c	.	.	2A	2cc
.	[1f	.	[1F	2a
2c	.	.	.	2a
=97	=97	=97	=97	=97
2A	1f]	0A_	0F_	2.cc
2A	.	.	.	.
.	.	.	.	4b
2.c	1f	.	.	2a
.	.	.	.	2g
4B	.	.	.	.
=98	=98	=98	=98	=98
2A	0f	0A]	1F]	1f
2G	.	.	.	.
2F	.	.	1f	1cc
2F	.	.	.	.
=99	=99	=99	=99	=99
1C	1g	0G	1e	1cc
1E	[1G	.	1e	1cc
=100	=100	=100	=100	=100
1D	2G]	0A	1f	1dd
.	4F	.	.	.
.	4E	.	.	.
1D	2.F	.	1f	1dd
.	4G	.	.	.
=101	=101	=101	=101	=101
0C	0G	0c	0e	0g
=102	=102	=102	=102	=102
0G	1r	0B	1r	1r
.	1d	.	1g	1b
=103	=103	=103	=103	=103
0r	1e	0A	1a	1cc
.	1c	.	1f	1cc
=104	=104	=104	=104	=104
1r	1d	0G	1g	1b
1G	1g	.	1d	1dd
=105	=105	=105	=105	=105
1C	1g	[0Gl	1e	1cc
1C	1g	.	1c	1cc
=106	=106	=106	=106	=106
0G	0g	0G_	0d	0b
=107	=107	=107	=107	=107
1r	1r	0G_	1r	1r
1G	1d	.	1g	1b
=108	=108	=108	=108	=108
1C	1e	0G_	1g	1cc
1C	1e	.	1g	1cc
=109	=109	=109	=109	=109
[0Gl	[0dl	0G_	[0gl	1.dd
.	.	.	.	8ddL
.	.	.	.	8cc
.	.	.	.	8b
.	.	.	.	8aJ
=	=	=	=	=
00G]	00d]	00G]	00g]	00b
=||	=||	=||	=||	=||
*M2/1	*M2/1	*M2/1	*M2/1	*M2/1
*met(C2)	*met(C2)	*met(C2)	*met(C2)	*met(C2)
!!section: Secunda pars: Parvulus filius
!!!OMD: Secunda pars: Parvulus filius
0r	0r	0r	1c	0r
.	.	.	1c	.
=110	=110	=110	=110	=110
0r	0r	0r	1d	0r
.	.	.	1d	.
=111	=111	=111	=111	=111
0r	1r	0r	1e	1g
.	1c	.	1e	1g
=112	=112	=112	=112	=112
0r	1c	0r	1e	1a
.	1d	.	1f	1a
=113	=113	=113	=113	=113
0r	1d	0r	1f	1b
.	1e	.	2.g	2r
.	.	.	.	[2g
.	.	.	4f	.
=114	=114	=114	=114	=114
1C	1E	0r	4e	2g]
.	.	.	4d	.
.	.	.	2.e	1g
1C	1E	.	.	.
.	.	.	4d	.
.	.	.	4c	[2a
.	.	.	4B	.
=115	=115	=115	=115	=115
1D	1F	0r	2A	2a]
.	.	.	2.d	1a
1D	1F	.	.	.
.	.	.	4c	.
.	.	.	2d	[2b
=116	=116	=116	=116	=116
1E	2G	0r	1B	2b]
.	2.c	.	.	1g
1C	.	.	1e	.
.	4d	.	.	.
.	[2e	.	.	[2g
=117	=117	=117	=117	=117
1C	4e]	0r	1e	2g]
.	4d	.	.	.
.	4c	.	.	1a
.	4B	.	.	.
1D	2.A	.	1f	.
.	.	.	.	[2a
.	4G	.	.	.
=118	=118	=118	=118	=118
1D	1A	0r	1f	2a]
.	.	.	.	2dd
1E	1G	.	[1g	2b
.	.	.	.	[2cc
=119	=119	=119	=119	=119
1C	0c	0r	2g]	2cc]
.	.	.	2f	4b
.	.	.	.	4a
1C	.	.	1e	2g
.	.	.	.	[2a
=120	=120	=120	=120	=120
1D	0A	0r	0d	4a]
.	.	.	.	4g
.	.	.	.	4f#i
.	.	.	.	4e
1D	.	.	.	1f#i
=121	=121	=121	=121	=121
1r	1B	0r	1G	1g
1C	[1c	.	1G	1e
=122	=122	=122	=122	=122
1C	1c]	0r	1A	1e
1D	1A	.	1A	1f
=123	=123	=123	=123	=123
1D	1d	0r	1B	1f
1E	2B	.	1G	1g
.	2G	.	.	.
=124	=124	=124	=124	=124
1C	1g	0r	1G	1cc
1C	2e	.	1A	1cc
.	2c	.	.	.
=125	=125	=125	=125	=125
*	*	*met(2)	*	*
1D	1f	[0d	0A	1a
[1D	2r	.	.	[1a
.	2f	.	.	.
=126	=126	=126	=126	=126
0D_	2f	0d_	2r	1a]
.	2f	.	2f	.
.	2d	.	2f	1a
.	2d	.	2f	.
=127	=127	=127	=127	=127
0D_	4f	0d_	2d	[0a
.	4e	.	.	.
.	4f	.	2d	.
.	4g	.	.	.
.	2a	.	4f	.
.	.	.	4e	.
.	2f	.	4f	.
.	.	.	4g	.
=128	=128	=128	=128	=128
0D_	2f	0d]	2a	0a_
.	2f	.	2f	.
.	2d	.	2f	.
.	2d	.	2f	.
=129	=129	=129	=129	=129
1D]	4f	[0d	2d	0a]
.	4e	.	.	.
.	4f	.	2d	.
.	4g	.	.	.
2r	1a	.	1f	.
2D	.	.	.	.
=130	=130	=130	=130	=130
2G	2r	0d_	2g	2r
2F	2A	.	2a	1dd
2G	2G	.	2b	.
2D	2F	.	[2a	2dd
=131	=131	=131	=131	=131
2F	2A	0d_	4a]	2a
.	.	.	4g	.
2G	2B-i	.	1g	2.dd
1D	1A	.	.	.
.	.	.	.	4cc
.	.	.	2f#i	2a
=132	=132	=132	=132	=132
1r	1G	0d]	1g	1b
1G	1B	.	1g	1dd
=133	=133	=133	=133	=133
1C	1c	0e	1g	1cc
1C	1c	.	1g	1ee
=134	=134	=134	=134	=134
[0D	2A	[0d	1.f	0ff
.	4d	.	.	.
.	4e	.	.	.
.	4f	.	.	.
.	4g	.	.	.
.	[2a	.	[2d	.
=135	=135	=135	=135	=135
0D]	4a]	0d]	2d]	0dd
.	4g	.	.	.
.	1g	.	4c	.
.	.	.	4B	.
.	.	.	1A	.
.	2f#i	.	.	.
=136	=136	=136	=136	=136
1r	0g	0B	1G	1r
1G	.	.	2r	1dd
.	.	.	2g	.
=137	=137	=137	=137	=137
1A	0r	0c	1e	1cc
1A	.	.	1f	1cc
=138	=138	=138	=138	=138
0G	1r	[0d	1g	2b
.	.	.	.	4g
.	.	.	.	4a
.	1g	.	1G	4b
.	.	.	.	4cc
.	.	.	.	[2dd
=139	=139	=139	=139	=139
1r	1f	0d]	1B-X	4dd]
.	.	.	.	4cc
.	.	.	.	4b
.	.	.	.	4a
1G	1g	.	1B-i	2.b
.	.	.	.	4a
=140	=140	=140	=140	=140
1C	0e	0c	0G	1.cc
1C	.	.	.	.
.	.	.	.	8ccL
.	.	.	.	8b
.	.	.	.	8a
.	.	.	.	8gJ
=141	=141	=141	=141	=141
1D	2r	[0A	2r	1f
.	2d	.	4d	.
.	.	.	4e	.
2r	2c	.	4f	1r
.	.	.	4e	.
2D	[2d	.	[2a	.
=142	=142	=142	=142	=142
2F	2d]	0A]	4a]	0r
.	.	.	4g	.
2G	2e	.	1g	.
1A	1c	.	.	.
.	.	.	2f#i	.
=143	=143	=143	=143	=143
1.B	1.d	0G	0g	0r
4A	4c	.	.	.
4G	4B	.	.	.
=144	=144	=144	=144	=144
1d	0B	0G	1r	2r
.	.	.	.	2b
1G	.	.	2r	2dd
.	.	.	2e	2ee
=145	=145	=145	=145	=145
0r	0r	0r	2g	2dd
.	.	.	2a	2cc
.	.	.	2g	2b
.	.	.	2f	2a
=146	=146	=146	=146	=146
0r	0r	0r	2e	2cc
.	.	.	1d	2dd
.	.	.	.	2.b
.	.	.	[2g	.
.	.	.	.	4g
=147	=147	=147	=147	=147
0r	1r	0r	2g]	1a
.	.	.	2f#i	.
.	2r	.	1g	[1g
.	2B	.	.	.
=148	=148	=148	=148	=148
2r	2d	0r	1G	1g]
2E	2e	.	.	.
2G	2d	.	1r	1r
2A	2c	.	.	.
=149	=149	=149	=149	=149
2G	2B	0r	0r	0r
2F	2A	.	.	.
2E	2c	.	.	.
[2D	2d	.	.	.
=150	=150	=150	=150	=150
2D]	2.B	0r	0r	0r
1G	.	.	.	.
.	4G	.	.	.
.	1A	.	.	.
2F#i	.	.	.	.
=151	=151	=151	=151	=151
1G	0G	0r	0r	2r
.	.	.	.	2b
2r	.	.	.	2dd
2E	.	.	.	2ee
=152	=152	=152	=152	=152
2G	1r	0r	2r	2dd
2A	.	.	2e	2cc
2G	2r	.	2g	2b
2F	2A	.	2a	2a
=153	=153	=153	=153	=153
2E	2c	0r	2g	0r
2D	2d	.	2f	.
1r	2c	.	2e	.
.	2B	.	2d	.
=154	=154	=154	=154	=154
2r	2A	0r	2a	1r
2G	2G	.	2.b	.
1G	1B	.	.	2r
.	.	.	4a	.
.	.	.	[2g	2dd
=155	=155	=155	=155	=155
1D	1A	0r	4g]	1dd
.	.	.	4f#i	.
.	.	.	4f#i	.
.	.	.	4e	.
2r	1G	.	1g	2b
2G	.	.	.	[2dd
=156	=156	=156	=156	=156
1G	1B	0r	2r	2dd]
.	.	.	2d	2.g
1D	1A	.	1d	.
.	.	.	.	8f#iL
.	.	.	.	8eJ
.	.	.	.	2f#i
=157	=157	=157	=157	=157
2r	2.G	0r	2.B	0g
1.G	.	.	.	.
.	4A	.	4c	.
.	4B	.	4d	.
.	4c	.	4G	.
.	[2d	.	[2g	.
=158	=158	=158	=158	=158
2E	4d]	0r	2g]	2r
.	4G	.	.	.
2C	1c	.	4f	2g
.	.	.	4e	.
1G	.	.	1d	1g
.	2B	.	.	.
=159	=159	=159	=159	=159
1C	4c	[0c	[0g	1e
.	4B	.	.	.
.	4c	.	.	.
.	4d	.	.	.
2r	[1e	.	.	2r
[2C	.	.	.	[2cc
=160	=160	=160	=160	=160
2C]	1e]	0c]	1g]	2cc]
2C	.	.	.	2g
2F	2r	.	2r	2a
2E	[2G	.	[2cc	2g
=161	=161	=161	=161	=161
1C	2G]	[0c	2cc]	1e
.	2E	.	2g	.
2r	2F	.	2a	2r
[2C	2E	.	2g	[2cc
=162	=162	=162	=162	=162
2C]	1G	0c]	1e	2cc]
2C	.	.	.	2g
2F	2r	.	2r	2a
2E	[2G	.	[2cc	2g
=163	=163	=163	=163	=163
1C	2G]	0c	2cc]	1e
.	2E	.	2g	.
2r	2F	.	2a	1r
[2C	2E	.	2g	.
=164	=164	=164	=164	=164
2C]	2G	0c	1e	2r
2C	2G	.	.	1cc
2C	2G	.	2r	.
2C	2G	.	2e	2cc
=165	=165	=165	=165	=165
1F	2A	0A	2f	2cc
.	2A	.	2f	2cc
1D	1F	.	2f	2dd
.	.	.	2f	2dd
=166	=166	=166	=166	=166
2.C	1G	[0c	2.e	1g
4D	.	.	4f	.
2E	1r	.	2g	2.cc
[2F	.	.	2a	.
.	.	.	.	4b
=167	=167	=167	=167	=167
2F]	1r	0c]	2f	2a
2E	.	.	2g	2g
1A	2r	.	2c	2g
.	2A	.	2cc	2f#i
=168	=168	=168	=168	=168
0G	2B	0d	2b	[0g
.	2G	.	2.cc	.
.	1B	.	.	.
.	.	.	4b	.
.	.	.	4b	.
.	.	.	4a	.
=169	=169	=169	=169	=169
0C	0G	[0c	[0cc	0g_
=170	=170	=170	=170	=170
1r	1r	0c]	0cc]	0g]
2c	2e	.	.	.
2d	2f	.	.	.
=171	=171	=171	=171	=171
2.e	2.g	0r	0r	0r
4d	4f	.	.	.
2c	2e	.	.	.
2B	2d	.	.	.
=172	=172	=172	=172	=172
0c	1c	0r	2e	2g
.	.	.	2e	2g
.	1r	.	2.e	2.g
.	.	.	4d	4f
=173	=173	=173	=173	=173
1r	0r	0r	2c	2e
.	.	.	2B	2d
[1F	.	.	1c	1c
=174	=174	=174	=174	=174
1F]	0c	0r	0r	0r
1F	.	.	.	.
=175	=175	=175	=175	=175
0F	1c	0r	0r	0r
.	[1c	.	.	.
=176	=176	=176	=176	=176
1E	1c]	0r	0r	0r
[1G	1B	.	.	.
=177	=177	=177	=177	=177
1G]	1d	0r	0r	0r
1F	1d	.	.	.
=178	=178	=178	=178	=178
1E	0e	0r	1.g	1r
1r	.	.	.	[1cc
.	.	.	2f	.
=179	=179	=179	=179	=179
0r	0r	0r	2e	1cc]
.	.	.	2d	.
.	.	.	2c	1cc
.	.	.	2B	.
=180	=180	=180	=180	=180
0r	0r	0r	4A	0cc
.	.	.	4B	.
.	.	.	4c	.
.	.	.	4d	.
.	.	.	2e	.
.	.	.	2f	.
=181	=181	=181	=181	=181
0r	0r	0r	1.g	1b
.	.	.	.	1dd
.	.	.	4f	.
.	.	.	4e	.
=182	=182	=182	=182	=182
1r	0r	0r	2f	1dd
.	.	.	1g	.
2r	.	.	.	[1ee
[2C	.	.	2e	.
=183	=183	=183	=183	=183
4C]	1c	0r	1e	1ee]
4D	.	.	.	.
4E	.	.	.	.
4F	.	.	.	.
4G	1B	.	2r	1r
4A	.	.	.	.
[2G	.	.	2d	.
=184	=184	=184	=184	=184
4G]	1A	0r	2e	1cc
4F	.	.	.	.
4F	.	.	2f	.
8EL	.	.	.	.
8FJ	.	.	.	.
1G	1G	.	2d	1b
.	.	.	[2g	.
=185	=185	=185	=185	=185
1D	0r	0r	2g]	1a
.	.	.	2f#i	.
1r	.	.	1g	1g
=186	=186	=186	=186	=186
0F	0c	[0A	0f	0cc
=187	=187	=187	=187	=187
0F	1c	0A]	0f	1cc
.	1A	.	.	[1cc
=188	=188	=188	=188	=188
1C	0e	0G	1g	1cc]
1E	.	.	1e	1b
=189	=189	=189	=189	=189
0D	0f	0A	0a	0dd
=190	=190	=190	=190	=190
0A	0e	[0c	0a	0ee
=191	=191	=191	=191	=191
0A	1r	0c]	1r	1r
.	1e	.	1a	[1ee
=192	=192	=192	=192	=192
0G	1g	0B	1b	1ee]
.	1d	.	1g	[1dd
=193	=193	=193	=193	=193
0F	1f	0A	1a	1dd]
.	1c	.	1f	1cc
=194	=194	=194	=194	=194
1C	1e	0G	[0g	1.cc
[1G	[1d	.	.	.
.	.	.	.	4b
.	.	.	.	4a
=195	=195	=195	=195	=195
1G]	1d]	0G	0g]	2.b
.	.	.	.	4a
[1C	1c	.	.	1cc
=196	=196	=196	=196	=196
1C]	1g	1r	1r	1r
1G	1g	1B	1d	1dd
=197	=197	=197	=197	=197
0C	1g	1c	1e	1cc
.	1g	1c	1e	1cc
=198	=198	=198	=198	=198
0G	1.g	1B	1d	1dd
.	.	1d	1g	1b
.	2f	.	.	.
=199	=199	=199	=199	=199
0r	2e	1e	1c	1cc
.	2d	.	.	.
.	1c	1e	1g	1cc
=200	=200	=200	=200	=200
1.G	0G	1d	0g	0b
.	.	[1g	.	.
2F	.	.	.	.
=201	=201	=201	=201	=201
2E	2r	2g]	1r	0r
2D	2A	2f	.	.
2C	2c	2e	2r	.
2G	2B	2d	[2g	.
=202	=202	=202	=202	=202
1A	1c	1c	4g]	1cc
.	.	.	4f#i	.
.	.	.	4f#i	.
.	.	.	8eL	.
.	.	.	8f#iJ	.
1B	1d	1G	1g	1b
=203	=203	=203	=203	=203
2r	1G	0d	1d	1dd
2.G	.	.	.	.
.	1A	.	1a	[1dd
4F#i	.	.	.	.
4F#i	.	.	.	.
8EL	.	.	.	.
8F#iJ	.	.	.	.
=204	=204	=204	=204	=204
1G	1G	1B	1b	1dd]
1C	1e	1c	2a	1r
.	.	.	[2g	.
=205	=205	=205	=205	=205
0D	0d	0A	2g]	0dd
.	.	.	4f#i	.
.	.	.	4e	.
.	.	.	2.f#i	.
.	.	.	4e	.
=206	=206	=206	=206	=206
1.G	1r	[0Gl	[0gl	0b
.	1d	.	.	.
2F	.	.	.	.
=207	=207	=207	=207	=207
2E	1e	0G_	0g_	0cc
2D	.	.	.	.
1C	1e	.	.	.
=208	=208	=208	=208	=208
00Gl	00dl	00G]	00g]	00b 00ddl
==	==	==	==	==
*-	*-	*-	*-	*-
!!!system-decoration: [*]
!!!RDF**kern: i = editorial accidental
!!!RDF**kern: l = terminal long
!!!ENC: Benjamin Ory
!!!END: 2022/02/09
!!!EED: Benjamin Ory
!!!EEV: 2022/05/05
!!!YEC: Copyright 2022 Benjamin Ory, All Rights Reserved
!!!ONB: Translated from MusicXML on 2022/02/09
